X:6380
T:Trip to London
A:North-West
M:6/8
N:P13 1/3
O:England
R:Jig
%%TUNEURL: http://www.leeds.ac.uk/music/Info/RRTuneBk/gettune/00000576.html
%%ID:00000576
K:Bb
DFB dcB | ABc GFE |   DFB dcB | FBAB3 :: \
Bdf Bdf | bag fed | ! Bdf Bdf | gec cAF |\
Bdf dga | bag fed |   cde dcB | FBA B3 :|
